X: 11916
T: Emmett's Revenge
R: polka
M: 2/4
K: Gmajor
|:G>A BG|GD DF|EA cA|dA FA|
G>A BG|GD DF|EA dA|AG GF:|
K: Emin
|:E>F GA|BG EG|Ad d^c|dA AF|
E>F GA|BG EA|Bc/B/ AF|dA AF:|

